X:40
T:Christening, The
M:9/8
L:1/8
B:Thompson's Compleat Collection of 200 Favourite Country Dances, vol. 3 (London, 1773)
Z:Transcribed and edited by Flynn Titford-Mock, 2007
Z:abc's:AK/Fiddler's Companion
K:Gmin
A | BAG edc d2A | BAG dBG A^FD | BAG edc d2^f | gce dBA G2 :|
|: B/c/ | dcB fed cAF | cAF dBG A^FD | gdg bag ^fga | gce dBA G2 :|

